ceiling-fan.svg

<svg fill="currentColor" viewBox="0 0 24 24"><path d="M8 3v2h3v5.27c-.62.36-1 1.02-1 1.73v1h4v-1c0-.71-.38-1.37-1-1.73V5h3V3zm-2 9c-2.21 0-4 .67-4 1.5S3.79 15 6 15s4-.67 4-1.5S8.21 12 6 12m12 0c-2.21 0-4 .67-4 1.5s1.79 1.5 4 1.5 4-.67 4-1.5-1.79-1.5-4-1.5m-8 2v1c0 .72.38 1.38 1 1.73.62.36 1.38.36 2 0 .62-.35 1-1.02 1-1.73v-1z"/></svg>

<svg  viewBox="0 0 24 24" fill="currentColor"><path  d="M8 3V5H11V10.27C10.38 10.63 10 11.29 10 12V13H14V12C14 11.29 13.62 10.63 13 10.27V5H16V3H8M6 12C3.79 12 2 12.67 2 13.5S3.79 15 6 15 10 14.33 10 13.5 8.21 12 6 12M18 12C15.79 12 14 12.67 14 13.5S15.79 15 18 15 22 14.33 22 13.5 20.21 12 18 12M10 14V15C10 15.72 10.38 16.38 11 16.73C11.62 17.09 12.38 17.09 13 16.73C13.62 16.38 14 15.71 14 15V14H10Z"/></svg>
